X: 1
T:Kohler's Hornpipe
M:C|
L:1/8
C:Kohler's repository
R:hornpipe
K:C
(3GAB|"C"c2cB cdef|"C"g^fga gedc|"F"AGAB cdcA|"C"GEcA GECE|!
"F"FEFG AGAB|"C"cBcd egag|"F"fedc "G"AcBd|"C"eccB c2:|!
gf|"C"egcg egcg|"G"dgBg dgBg|"Am"ceAe ceAe|"C/Em"GcEc GcEc|!
"F"FEFG AGAB|"C"cBcd egag|"F"fedc "G"AcBd|eccBc2:||
